X: 42912
T: Will You Come Home With Me?
R: jig
M: 6/8
K: Gmajor
|:dge fdc|~B2d cAF|~G3 ABA|~G3 ABc|
dge fdc|~B2d cAF|~G3 ABA|GAB G3:|
|:d2B c2A|B2d cAF|~G3 ABA|~G3 ABc|
d2B c2A|B2d cAF|~G3 ABA|GAB G3:|

